Papirus/24x24/panel/btsync-gui-paused.svg

<?xml version="1.0" encoding="UTF-8" standalone="no"?>
<svg xmlns:dc="http://purl.org/dc/elements/1.1/" xmlns:cc="http://creativecommons.org/ns#" xmlns:rdf="http://www.w3.org/1999/02/22-rdf-syntax-ns#" xmlns:svg="http://www.w3.org/2000/svg" xmlns="http://www.w3.org/2000/svg" height="24" width="24" version="1.1" id="svg2">
    <metadata id="metadata8">
        <rdf:RDF>
            <cc:Work rdf:about="">
                <dc:format>
                    image/svg+xml
                </dc:format>
                <dc:type rdf:resource="http://purl.org/dc/dcmitype/StillImage"/>
                <dc:title/>
            </cc:Work>
        </rdf:RDF>
    </metadata>
    <defs id="defs6">
        <clipPath id="clipPath-408241621">
            <g id="g3616" transform="translate(0,-1004.3622)">
                <path id="path3618" transform="matrix(15.333333,0,0,11.5,414.99999,878.8622)" d="m -24,13 c 0,1.105 -0.672,2 -1.5,2 -0.828,0 -1.5,-0.895 -1.5,-2 0,-1.105 0.672,-2 1.5,-2 0.828,0 1.5,0.895 1.5,2 z" style="fill:#1890d0"/>
            </g>
        </clipPath>
        <clipPath id="clipPath-401820784">
            <g id="g3611" transform="translate(0,-1004.3622)">
                <path id="path3613" transform="matrix(15.333333,0,0,11.5,414.99999,878.8622)" d="m -24,13 c 0,1.105 -0.672,2 -1.5,2 -0.828,0 -1.5,-0.895 -1.5,-2 0,-1.105 0.672,-2 1.5,-2 0.828,0 1.5,0.895 1.5,2 z" style="fill:#1890d0"/>
            </g>
        </clipPath>
        <linearGradient gradientTransform="matrix(0,-1,1,0,-1.5e-6,47.999998)" gradientUnits="userSpaceOnUse" x2="47" x1="1" id="linearGradient3764">
            <stop id="stop3606" stop-opacity="1" stop-color="#003c80"/>
            <stop id="stop3608" stop-opacity="1" stop-color="#004794" offset="1"/>
        </linearGradient>
    </defs>
    <g style="opacity:0.3;fill:#ffffff;fill-opacity:1" id="g3628" transform="matrix(0.34782609,0,0,0.34782609,3.6435901,3.6456557)">
        <path id="path3630" transform="matrix(2.875,0,0,2.875,-7.6003215,-7.6062606)" d="m 11,3 c -4.418435,0 -8,3.581565 -8,8 0,4.418435 3.581565,8 8,8 4.418435,0 8,-3.581565 8,-8 0,-4.418435 -3.581565,-8 -8,-8 z m -3.75,2 3,0 A 1.0001,1.0001 0 0 1 11,5.3417969 1.0001,1.0001 0 0 1 11.75,5 l 3,0 a 1.0001,1.0001 0 0 1 1,1 l 0,1.9140625 C 15.95092,8.1962057 16.135328,8.4915993 16.28125,8.8125 L 17.5,8.34375 l -1,3.46875 -0.75,-0.417969 0,1.408203 0.59375,0.228516 C 16.187037,13.407129 15.979607,13.749392 15.75,14.074219 L 15.75,16 a 1.0001,1.0001 0 0 1 -1,1 l -3,0 A 1.0001,1.0001 0 0 1 11,16.660156 1.0001,1.0001 0 0 1 10.25,17 l -3,0 a 1.0001,1.0001 0 0 1 -1,-1 l 0,-1.939453 C 6.0482982,13.775425 5.8625527,13.47858 5.71875,13.15625 L 4.5,13.59375 l 1,-3.375 0.75,0.402344 0,-1.3925784 L 5.65625,9 C 5.8095088,8.6183946 6.0179158,8.2704044 6.25,7.9394531 L 6.25,6 a 1.0001,1.0001 0 0 1 1,-1 z m 5.5,2.75 0,6.492188 c 0.37158,-0.181025 0.708486,-0.420122 1,-0.707032 l 0,-3.253906 L 13.1875,9.96875 13.75,9.75 l 0,-1.2851562 C 13.458677,8.1743867 13.124004,7.9308058 12.75,7.75 Z m -3.5,0.00977 c -0.3730305,0.185668 -0.7082387,0.4313045 -1,0.7226519 l 0,3.2148441 L 8.8125,12 8.25,12.21875 l 0,1.292969 c 0.2907393,0.293992 0.626965,0.539867 1,0.726562 l 0,-6.4785154 z" style="fill:#ffffff;fill-opacity:1"/>
    </g>
    <g transform="matrix(0.49988464,0,0,0.49988464,-36.411065,8.9950009)" clip-path="url(#clipPath-408241621)" id="g3650">
<!--color: #004794-->
    </g>
    <g style="fill:#ffffff;fill-opacity:1" transform="translate(1.25,0.9999998)" id="g3037-6">
        <rect style="fill:#ffffff;fill-opacity:1;stroke:none" id="rect3017-1" width="3" height="10" x="11.5" y="6"/>
        <rect style="fill:#ffffff;fill-opacity:1;stroke:none" id="rect3017-7-4" width="3" height="10" x="7" y="6"/>
    </g>
</svg>

<?xml version="1.0" encoding="UTF-8" standalone="no"?>
<svg id="svg2" xmlns:rdf="http://www.w3.org/1999/02/22-rdf-syntax-ns#" xmlns="http://www.w3.org/2000/svg" height="24" width="24" version="1.1" xmlns:cc="http://creativecommons.org/ns#" xmlns:dc="http://purl.org/dc/elements/1.1/">
 <metadata id="metadata8">
  <rdf:RDF>
   <cc:Work rdf:about="">
    <dc:format>image/svg+xml</dc:format>
    <dc:type rdf:resource="http://purl.org/dc/dcmitype/StillImage"/>
    <dc:title/>
   </cc:Work>
  </rdf:RDF>
 </metadata>
 <defs id="defs6">
  <clipPath id="clipPath-408241621">
   <g id="g3616" transform="translate(0 -1004.4)">
    <path id="path3618" d="m-24 13c0 1.105-0.672 2-1.5 2s-1.5-0.895-1.5-2 0.672-2 1.5-2 1.5 0.895 1.5 2z" fill="#1890d0" transform="matrix(15.333 0 0 11.5 415 878.86)"/>
   </g>
  </clipPath>
 </defs>
 <g id="g3628" opacity=".3" transform="matrix(.34783 0 0 .34783 3.6436 3.6457)" fill="#fff">
  <path id="path3630" d="m11 3c-4.4184 0-8 3.5816-8 8s3.5816 8 8 8 8-3.5816 8-8-3.5816-8-8-8zm-3.75 2h3a1.0001 1.0001 0 0 1 0.75 0.3418 1.0001 1.0001 0 0 1 0.75 -0.3418h3a1.0001 1.0001 0 0 1 1 1v1.9141c0.201 0.2821 0.385 0.5775 0.531 0.8984l1.219-0.4687-1 3.4688-0.75-0.41797v1.4082l0.59375 0.22852c-0.157 0.376-0.364 0.718-0.594 1.043v1.926a1.0001 1.0001 0 0 1 -1 1h-3a1.0001 1.0001 0 0 1 -0.75 -0.34 1.0001 1.0001 0 0 1 -0.75 0.34h-3a1.0001 1.0001 0 0 1 -1 -1v-1.9395c-0.2017-0.285-0.3874-0.581-0.5312-0.904l-1.2188 0.438 1-3.375 0.75 0.40234v-1.3926l-0.5938-0.2287c0.1533-0.3816 0.3617-0.7296 0.5938-1.0605v-1.9395a1.0001 1.0001 0 0 1 1 -1zm5.5 2.75v6.4922c0.37158-0.18102 0.70849-0.42012 1-0.70703v-3.2539l-0.562-0.3122 0.562-0.2188v-1.2852c-0.291-0.2904-0.626-0.534-1-0.7148zm-3.5 0.00977c-0.37303 0.18567-0.70824 0.4313-1 0.72265v3.2148l0.5625 0.303-0.5625 0.219v1.293c0.29074 0.29399 0.62696 0.53987 1 0.72656v-6.4785z" transform="matrix(2.875 0 0 2.875 -7.6003 -7.6063)" fill="#fff"/>
 </g>
 <g id="g3650" transform="matrix(.49988 0 0 .49988 -36.411 8.995)" clip-path="url(#clipPath-408241621)"><!--color: #004794--></g>
 <g id="g3037-6" fill="#fff" transform="translate(1.25 1)">
  <rect id="rect3017-1" height="10" width="3" y="6" x="11.5"/>
  <rect id="rect3017-7-4" height="10" width="3" y="6" x="7"/>
 </g>
</svg>
